!!!SOCIAL_FUNCTION:	songs of social dance
!!!PDT:	1936
!!!OTL: No_60_Song_of_Rabbit_Dance_(a).krn
!!!REG: Oklahoma and Montana
!!!LANG: Tone
!!!LING_GROUP: Algonquin
**kern	**kern
*staff2	*staff1
=1-	=1-
*clefF4	*clefF4
*k[f#]	*k[f#]
*M2/4	*M2/4
8GG/L	4r
8GG/J	.
8GG/L	12G\L
.	12G\
8GG/J	.
.	12G\J
=2	=2
8GG/L	2e\
8GG/J	.
8GG/L	.
8GG/J	.
=3	=3
2r	12e\L
.	12B\
.	12B\J
.	12B\L
.	12e\
.	24B\Jk
.	24r
=4	=4
2r	12B\L
.	12A\
.	12G\J
.	8.E\L
.	16E\Jk
=5	=5
*M3/4	*M3/4
2.r	4E\
.	4r
.	8.E\L
.	16E\Jk
=6	=6
*M2/4	*M2/4
2r	2e\
=7!|:	=7!|:
2r	12e\L
.	12B\
.	12B\J
.	12B\L
.	12e\
.	24B\Jk
.	24r
=8	=8
2r	12B\L
.	12A\
.	12G\J
.	8.E\L
.	16E\Jk
=9	=9
*M3/4	*M3/4
2.r	4.E\
.	8r
.	8.E\L
.	16E\Jk
=10	=10
*M2/4	*M2/4
2r	2G#\
=11	=11
2r	16G#\LK
.	8.F#\J
.	16E\LK
.	8.F#\J
=12	=12
2r	8.G#\L
.	16F#\Jk
.	8.E\L
.	16E\Jk
=13	=13
2r	4.E\
.	8r
=14	=14
2r	16F#\LK
.	8.E\J
.	4E\
=15	=15
2r	16F#\LK
.	8.E\J
.	4E\
=16	=16
2r	16E\LK
.	8.E\J
.	4r
=17:|!	=17:|!
2r	4E\
.	4r
==	==
*-	*-
